svgs/sharp-solid/pi.svg

<svg xmlns="http://www.w3.org/2000/svg" viewBox="0 0 448 512"><!--! Font Awesome Pro 6.6.0 by @fontawesome - https://fontawesome.com License - https://fontawesome.com/license (Commercial License) Copyright 2024 Fonticons, Inc. --><path d="M32 64L0 64l0 64 32 0 64 0 0 217.8L66.3 420.1l59.4 23.8 32-80 2.3-5.7 0-6.2 0-224 128 0 0 288 0 32 32 0 80 0 23.1 0 7.3-21.9 16-48-60.7-20.2L376.9 384 352 384l0-256 64 0 32 0 0-64-32 0L32 64z"/></svg>

<svg xmlns="http://www.w3.org/2000/svg" viewBox="0 0 448 512"><!--! Font Awesome Pro 6.4.2 by @fontawesome - https://fontawesome.com License - https://fontawesome.com/license (Commercial License) Copyright 2023 Fonticons, Inc. --><path d="M32 64H0v64H32 96V345.8L66.3 420.1l59.4 23.8 32-80 2.3-5.7V352 128H288V416v32h32 80 23.1l7.3-21.9 16-48-60.7-20.2L376.9 384H352V128h64 32V64H416 32z"/></svg>
